packages/icon/src/svg/question-filled.icon.svg

<svg width="24" height="24" viewBox="0 0 24 24" fill="none" xmlns="http://www.w3.org/2000/svg">
<path fill-rule="evenodd" clip-rule="evenodd" d="M2 12C2 6.48 6.48 2 12 2C17.52 2 22 6.48 22 12C22 17.52 17.52 22 12 22C6.48 22 2 17.52 2 12ZM9.42061 10.4093H10.3494C10.5869 10.4092 10.7882 10.2343 10.8211 9.99902C10.8343 9.90515 10.8522 9.81403 10.8747 9.72565C10.9289 9.51357 11.0124 9.32857 11.1252 9.17064C11.238 9.01271 11.3824 8.88637 11.5583 8.79161C11.7343 8.69685 11.9441 8.64947 12.1878 8.64947C12.5488 8.64947 12.8308 8.74874 13.0338 8.94728C13.2369 9.14582 13.3384 9.45265 13.3384 9.86778C13.3474 10.1114 13.3046 10.3145 13.2098 10.4769C13.1151 10.6394 12.991 10.7883 12.8376 10.9236C12.6841 11.059 12.5172 11.1944 12.3367 11.3298C12.1562 11.4651 11.9847 11.6253 11.8223 11.8103C11.6599 11.9953 11.5177 12.2187 11.3959 12.4804C11.3771 12.5207 11.3547 12.5633 11.3303 12.6098C11.2297 12.8011 11.0944 13.0586 11.0329 13.4961C10.9989 13.738 11.1674 13.9617 11.4093 13.9957C11.4297 13.9986 11.4503 14 11.4709 14L12.5653 14V14C12.8008 14 12.996 13.8176 13.012 13.5826C13.042 13.1417 13.1248 13.0419 13.2213 12.9255C13.2353 12.9087 13.2496 12.8915 13.264 12.8729C13.4038 12.6924 13.564 12.5323 13.7445 12.3924C13.925 12.2525 14.1168 12.1126 14.3198 11.9727C14.5229 11.8329 14.7079 11.6637 14.8748 11.4651C15.0418 11.2666 15.1817 11.0274 15.2945 10.7477C15.4073 10.4679 15.4637 10.1114 15.4637 9.67827C15.4637 9.41655 15.4073 9.13454 15.2945 8.83222C15.1817 8.5299 14.9944 8.24788 14.7327 7.98617C14.471 7.72446 14.1258 7.50562 13.6971 7.32964C13.2685 7.15366 12.7338 7.06567 12.093 7.06567C11.5967 7.06567 11.1477 7.14915 10.7461 7.3161C10.6799 7.34363 10.6271 7.36373 10.5818 7.38096L10.5817 7.38098C10.3523 7.46827 10.3164 7.48194 9.71734 8.01325C9.16072 8.50693 9.04144 9.38369 9.01172 9.97946C9.00046 10.2053 9.17439 10.3975 9.40021 10.4087C9.40701 10.4091 9.41381 10.4093 9.42061 10.4093ZM11.5 15H12.5C12.7761 15 13 15.2239 13 15.5V16.5C13 16.7762 12.7761 17 12.5 17H11.5C11.2239 17 11 16.7762 11 16.5V15.5C11 15.2239 11.2239 15 11.5 15Z" fill="white"/>
</svg>

<svg aria-label="question filled icon" viewBox="0 0 24 24"><path fill-rule="evenodd" clip-rule="evenodd" d="M2 12C2 6.48 6.48 2 12 2s10 4.48 10 10-4.48 10-10 10S2 17.52 2 12zm7.42-1.59h.93a.476.476 0 00.471-.411c.013-.094.031-.185.054-.273.054-.212.137-.397.25-.555a1.26 1.26 0 01.433-.38 1.31 1.31 0 01.63-.142c.36 0 .643.1.846.298.203.199.304.506.304.92.01.244-.033.447-.128.61a1.814 1.814 0 01-.372.447 8.15 8.15 0 01-.501.406 3.4 3.4 0 00-.515.48 2.797 2.797 0 00-.426.67c-.019.04-.041.083-.066.13-.1.191-.236.449-.297.886a.442.442 0 00.438.504h1.094a.447.447 0 00.447-.417c.03-.441.113-.541.21-.658l.042-.052c.14-.18.3-.34.48-.48.181-.14.373-.28.576-.42a2.636 2.636 0 00.975-1.225c.112-.28.169-.637.169-1.07a2.43 2.43 0 00-.731-1.692c-.262-.262-.607-.48-1.036-.656-.428-.176-.963-.264-1.604-.264a3.48 3.48 0 00-1.347.25 5.403 5.403 0 01-.164.065c-.23.087-.266.1-.865.632-.556.494-.676 1.37-.705 1.966a.41.41 0 00.409.43zM11.5 15h1a.5.5 0 01.5.5v1a.5.5 0 01-.5.5h-1a.5.5 0 01-.5-.5v-1a.5.5 0 01.5-.5z"/></svg>
